images/pharmaxo-logo.svg

<svg fill="none" height="36" viewBox="0 0 174 36" width="174" xmlns="http://www.w3.org/2000/svg"><path clip-rule="evenodd" d="m155.242 21.4839c-.875-1.5124-1.38-3.2677-1.38-5.1401 0-5.6807 4.611-10.28848 10.292-10.28848.966 0 1.743.78335 1.743 1.7497 0 .96636-.783 1.75016-1.749 1.75016-3.749 0-6.789 3.03932-6.789 6.78842 0 1.2365.334 2.394.912 3.3924.148.2568.231.5549.231.873 0 .9663-.784 1.7497-1.75 1.7497-.647 0-1.208-.3531-1.51-.8748zm5.17-9.1749c-1.084 1.0041-1.763 2.4403-1.763 4.0346 0 1.001.27 1.937.739 2.7468.261.4538.403.9748.403 1.5186 0 1.2147-.712 2.2625-1.741 2.7495 1.412.4364 2.994.3061 4.375-.4909.867-.5006 1.543-1.2027 2.01-2.0134.262-.4531.642-.8368 1.113-1.1084 1.052-.6076 2.316-.5147 3.252.1339-.328-1.4412-1.232-2.7471-2.613-3.5442-.867-.5006-1.813-.7347-2.748-.7341-.524 0-1.046-.1377-1.517-.4094-1.052-.6071-1.603-1.7481-1.51-2.883zm8.168 10.9393c-.872 1.5134-2.14 2.8285-3.761 3.7648-4.92 2.84-11.216 1.1509-14.056-3.7686-.483-.8367-.193-1.9013.644-2.384.837-.4834 1.907-.1975 2.39.6393 1.874 3.2467 6.026 4.3592 9.273 2.4846 1.071-.618 1.906-1.4862 2.482-2.4855.149-.2568.366-.4771.641-.6364.837-.4827 1.907-.1961 2.39.6409.323.5601.298 1.2219-.003 1.7449zm-5.141-12.4341c1.747-.0009 3.52.4396 5.141 1.3758 4.92 2.8403 6.605 9.1374 3.765 14.0569-.484.8368-1.55 1.1175-2.387.6345-.837-.4834-1.124-1.5529-.641-2.3898 1.874-3.2468.762-7.3983-2.485-9.2734-1.071-.6182-2.24-.9075-3.394-.9066-.296 0-.596-.0778-.871-.2366-.837-.4834-1.124-1.5534-.64-2.3901.323-.5601.909-.8695 1.512-.8707z" fill="#97999b" fill-rule="evenodd"/><g fill="#00a3e0"><path d="m31.6738 27.9733h3.5254v-12.2997c0-4.6768-3.7837-8.48161-8.4347-8.48161-1.776 0-3.492.55398-4.9094 1.57304v-8.76503h-3.572v27.9609h3.572v-12.2873c0-2.707 2.2024-4.9096 4.9094-4.9096 2.7072 0 4.9093 2.2026 4.9093 4.9096z"/><path clip-rule="evenodd" d="m3.58853 36h-3.58853v-20.3545c0-4.7123 3.83374-8.54626 8.54629-8.54626h.43545c4.71256 0 8.54626 3.83416 8.54626 8.54626v3.8378c0 4.7126-3.8337 8.5466-8.54626 8.5466h-.43545c-1.79449 0-3.52768-.561-4.95776-1.593zm4.95775-25.3122c-2.73369 0-4.95775 2.224-4.95775 4.9577v3.8379c0 2.7337 2.22406 4.9577 4.95775 4.9577h.43545c2.73367 0 4.95797-2.224 4.95797-4.9577v-3.8379c0-2.7337-2.2243-4.9577-4.95797-4.9577z" fill-rule="evenodd"/><path d="m53.2498 27.9593h-3.3997v-12.3262c0-2.788-2.2681-5.0564-5.0561-5.0564h-.4366c-2.788 0-5.0564 2.2684-5.0564 5.0564v3.8401c0 2.788 2.2684 5.0561 5.0564 5.0561h.4366c1.3484 0 2.6333-.5205 3.6177-1.4658l.9863-.9804v.8786c0 .5058-.0039 1.3708-.0073 2.1207l-.0014.3272c-.002.4322-.0036.7943-.0036.9757v.2043l-.1739.107c-1.3102.8062-2.838 1.2326-4.4178 1.2326h-.4366c-4.6625 0-8.4558-3.7935-8.4558-8.456v-3.8401c0-4.6626 3.7933-8.45581 8.4558-8.45581h.4366c4.6625 0 8.4558 3.79321 8.4558 8.45581z"/><path clip-rule="evenodd" d="m138.871 27.9278h-.437c-4.646 0-8.439-3.7808-8.456-8.4277v-3.8681c0-4.6626 3.794-8.45561 8.456-8.45561h.437c4.662 0 8.456 3.79301 8.456 8.45561v3.8403c-.014 4.6628-3.807 8.4555-8.456 8.4555zm-.437-17.3522c-2.788 0-5.056 2.2684-5.056 5.0564v3.8403c0 2.7877 2.268 5.0559 5.056 5.0559h.437c2.788 0 5.056-2.2682 5.056-5.0559v-3.8403c0-2.788-2.268-5.0564-5.056-5.0564z" fill-rule="evenodd"/><path d="m53.9969 27.9278h3.3995v-12.2958c0-2.788 2.2679-5.0562 5.0543-5.0562.6859.0025 1.3505.14 1.975.4088l.5099.2192v-3.65259l-.2685-.07397c-.6626-.18232-1.3484-.28275-2.0422-.29881l-.1731-.00204c-1.8311.00113-3.5987.59515-5.0554 1.68637v-1.69338h-3.3995z"/><path d="m96.0353 27.9278h-3.3996v-12.2958c0-2.7783-2.2587-5.0465-5.0354-5.0562-2.7864 0-5.0541 2.2682-5.0541 5.0562v12.2958h-3.3994v-12.2958c0-2.7783-2.2587-5.0465-5.0349-5.0562-2.7864 0-5.0543 2.2682-5.0543 5.0562v12.2958h-3.3995v-20.75842h3.3995v1.69338c1.4567-1.09122 3.2243-1.68524 5.0554-1.68637l.1728.00204c2.5926.06039 5.0069 1.31267 6.5616 3.37707 1.5988-2.12367 4.0862-3.37753 6.7541-3.37911l.173.00204c4.5565.10586 8.2608 3.89797 8.2608 8.45357z"/><path d="m110.802 27.9593h3.399v-12.3262c0-4.6626-3.793-8.45581-8.455-8.45581h-.437c-4.662 0-8.4557 3.79321-8.4557 8.45581v3.8401c0 4.6625 3.7937 8.456 8.4557 8.456h.437c1.579 0 3.107-.4264 4.417-1.2326l.175-.107v-.2043c0-.2126.002-.6731.004-1.2042l.001-.2332c.003-.7166.007-1.5103.007-1.9862v-.8786l-.987.9804c-.984.9453-2.269 1.4658-3.617 1.4658h-.437c-2.788 0-5.056-2.2681-5.056-5.0561v-3.8401c0-2.788 2.268-5.0564 5.056-5.0564h.437c2.788 0 5.056 2.2684 5.056 5.0564z"/><path d="m115.694 27.9297h-.741v-3.4029h.74c2.78-.0072 5.042-2.2745 5.042-5.0536v-3.8401c0-2.7796-2.262-5.0471-5.043-5.0543h-.739v-3.40241h.74c2.758.00429 5.211 1.33767 6.752 3.39201 1.541-2.05234 3.991-3.38545 6.746-3.39201h.741v3.40241h-.74c-2.777.009-5.038 2.2765-5.038 5.0543v3.8401c0 2.773 2.257 5.0401 5.032 5.0536h.737v3.4029h-.739c-2.752-.0089-5.2-1.342-6.739-3.3928-1.541 2.0539-3.994 3.3875-6.751 3.3928z"/></g></svg>

<svg width="174" height="36" viewBox="0 0 174 36" fill="none" xmlns="http://www.w3.org/2000/svg">
<path fill-rule="evenodd" clip-rule="evenodd" d="M155.242 21.4839C154.367 19.9715 153.862 18.2162 153.862 16.3438C153.862 10.6631 158.473 6.05532 164.154 6.05532C165.12 6.05532 165.897 6.83867 165.897 7.80502C165.897 8.77138 165.114 9.55518 164.148 9.55518C160.399 9.55518 157.359 12.5945 157.359 16.3436C157.359 17.5801 157.693 18.7376 158.271 19.736C158.419 19.9928 158.502 20.2909 158.502 20.609C158.502 21.5753 157.718 22.3587 156.752 22.3587C156.105 22.3587 155.544 22.0056 155.242 21.4839ZM160.412 12.309C159.328 13.3131 158.649 14.7493 158.649 16.3436C158.649 17.3446 158.919 18.2806 159.388 19.0904C159.649 19.5442 159.791 20.0652 159.791 20.609C159.791 21.8237 159.079 22.8715 158.05 23.3585C159.462 23.7949 161.044 23.6646 162.425 22.8676C163.292 22.367 163.968 21.6649 164.435 20.8542C164.697 20.4011 165.077 20.0174 165.548 19.7458C166.6 19.1382 167.864 19.2311 168.8 19.8797C168.472 18.4385 167.568 17.1326 166.187 16.3355C165.32 15.8349 164.374 15.6008 163.439 15.6014C162.915 15.6014 162.393 15.4637 161.922 15.192C160.87 14.5849 160.319 13.4439 160.412 12.309ZM168.58 23.2483C167.708 24.7617 166.44 26.0768 164.819 27.0131C159.899 29.8531 153.603 28.164 150.763 23.2445C150.28 22.4078 150.57 21.3432 151.407 20.8605C152.244 20.3771 153.314 20.663 153.797 21.4998C155.671 24.7465 159.823 25.859 163.07 23.9844C164.141 23.3664 164.976 22.4982 165.552 21.4989C165.701 21.2421 165.918 21.0218 166.193 20.8625C167.03 20.3798 168.1 20.6664 168.583 21.5034C168.906 22.0635 168.881 22.7253 168.58 23.2483ZM163.439 10.8142C165.186 10.8133 166.959 11.2538 168.58 12.19C173.5 15.0303 175.185 21.3274 172.345 26.2469C171.861 27.0837 170.795 27.3644 169.958 26.8814C169.121 26.398 168.834 25.3285 169.317 24.4916C171.191 21.2448 170.079 17.0933 166.832 15.2182C165.761 14.6 164.592 14.3107 163.438 14.3116C163.142 14.3116 162.842 14.2338 162.567 14.075C161.73 13.5916 161.443 12.5216 161.927 11.6849C162.25 11.1248 162.836 10.8154 163.439 10.8142Z" fill="#97999B"/>
<path d="M31.6738 27.9733H35.1992V15.6736C35.1992 10.9968 31.4155 7.19199 26.7645 7.19199C24.9885 7.19199 23.2725 7.74597 21.8551 8.76503V0H18.2831V27.9609H21.8551V15.6736C21.8551 12.9666 24.0575 10.764 26.7645 10.764C29.4717 10.764 31.6738 12.9666 31.6738 15.6736V27.9733Z" fill="#00A3E0"/>
<path fill-rule="evenodd" clip-rule="evenodd" d="M3.58853 36H0V15.6455C0 10.9332 3.83374 7.09924 8.54629 7.09924H8.98174C13.6943 7.09924 17.528 10.9334 17.528 15.6455V19.4833C17.528 24.1959 13.6943 28.0299 8.98174 28.0299H8.54629C6.7518 28.0299 5.01861 27.4689 3.58853 26.4369V36ZM8.54628 10.6878C5.81259 10.6878 3.58853 12.9118 3.58853 15.6455V19.4834C3.58853 22.2171 5.81259 24.4411 8.54628 24.4411H8.98173C11.7154 24.4411 13.9397 22.2171 13.9397 19.4834V15.6455C13.9397 12.9118 11.7154 10.6878 8.98173 10.6878H8.54628Z" fill="#00A3E0"/>
<path d="M53.2498 27.9593H49.8501V15.6331C49.8501 12.8451 47.582 10.5767 44.794 10.5767H44.3574C41.5694 10.5767 39.301 12.8451 39.301 15.6331V19.4732C39.301 22.2612 41.5694 24.5293 44.3574 24.5293H44.794C46.1424 24.5293 47.4273 24.0088 48.4117 23.0635L49.398 22.0831V22.9617C49.398 23.4675 49.3941 24.3325 49.3907 25.0824L49.3893 25.4096C49.3873 25.8418 49.3857 26.2039 49.3857 26.3853V26.5896L49.2118 26.6966C47.9016 27.5028 46.3738 27.9292 44.794 27.9292H44.3574C39.6949 27.9292 35.9016 24.1357 35.9016 19.4732V15.6331C35.9016 10.9705 39.6949 7.17729 44.3574 7.17729H44.794C49.4565 7.17729 53.2498 10.9705 53.2498 15.6331V27.9593Z" fill="#00A3E0"/>
<path fill-rule="evenodd" clip-rule="evenodd" d="M138.871 27.9278H138.434C133.788 27.9278 129.995 24.147 129.978 19.5001V15.632C129.978 10.9694 133.772 7.17639 138.434 7.17639H138.871C143.533 7.17639 147.327 10.9694 147.327 15.632V19.4723C147.313 24.1351 143.52 27.9278 138.871 27.9278ZM138.434 10.5756C135.646 10.5756 133.378 12.844 133.378 15.632V19.4723C133.378 22.26 135.646 24.5282 138.434 24.5282H138.871C141.659 24.5282 143.927 22.26 143.927 19.4723V15.632C143.927 12.844 141.659 10.5756 138.871 10.5756H138.434Z" fill="#00A3E0"/>
<path d="M53.9969 27.9278H57.3964V15.632C57.3964 12.844 59.6643 10.5758 62.4507 10.5758C63.1366 10.5783 63.8012 10.7158 64.4257 10.9846L64.9356 11.2038V7.55121L64.6671 7.47724C64.0045 7.29492 63.3187 7.19449 62.6249 7.17843L62.4518 7.17639C60.6207 7.17752 58.8531 7.77154 57.3964 8.86276V7.16938H53.9969V27.9278Z" fill="#00A3E0"/>
<path d="M96.0353 27.9278H92.6357V15.632C92.6357 12.8537 90.377 10.5855 87.6003 10.5758C84.8139 10.5758 82.5462 12.844 82.5462 15.632V27.9278H79.1468V15.632C79.1468 12.8537 76.8881 10.5855 74.1119 10.5758C71.3255 10.5758 69.0576 12.844 69.0576 15.632V27.9278H65.6581V7.16938H69.0576V8.86276C70.5143 7.77154 72.2819 7.17752 74.113 7.17639L74.2858 7.17843C76.8784 7.23882 79.2927 8.4911 80.8474 10.5555C82.4462 8.43183 84.9336 7.17797 87.6015 7.17639L87.7745 7.17843C92.331 7.28429 96.0353 11.0764 96.0353 15.632V27.9278Z" fill="#00A3E0"/>
<path d="M110.802 27.9593H114.201V15.6331C114.201 10.9705 110.408 7.17729 105.746 7.17729H105.309C100.647 7.17729 96.8533 10.9705 96.8533 15.6331V19.4732C96.8533 24.1357 100.647 27.9292 105.309 27.9292H105.746C107.325 27.9292 108.853 27.5028 110.163 26.6966L110.338 26.5896V26.3853C110.338 26.1727 110.34 25.7122 110.342 25.1811L110.343 24.9479C110.346 24.2313 110.35 23.4376 110.35 22.9617V22.0831L109.363 23.0635C108.379 24.0088 107.094 24.5293 105.746 24.5293H105.309C102.521 24.5293 100.253 22.2612 100.253 19.4732V15.6331C100.253 12.8451 102.521 10.5767 105.309 10.5767H105.746C108.534 10.5767 110.802 12.8451 110.802 15.6331V27.9593Z" fill="#00A3E0"/>
<path d="M115.694 27.9297H114.953V24.5268H115.693C118.473 24.5196 120.735 22.2523 120.735 19.4732V15.6331C120.735 12.8535 118.473 10.586 115.692 10.5788H114.953V7.17639H115.693C118.451 7.18068 120.904 8.51406 122.445 10.5684C123.986 8.51606 126.436 7.18295 129.191 7.17639H129.932V10.5788H129.192C126.415 10.5878 124.154 12.8553 124.154 15.6331V19.4732C124.154 22.2462 126.411 24.5133 129.186 24.5268H129.923V27.9297H129.184C126.432 27.9208 123.984 26.5877 122.445 24.5369C120.904 26.5908 118.451 27.9244 115.694 27.9297Z" fill="#00A3E0"/>
</svg>
